!!!!SEGMENT: pl-cz--iii-559--001-002_raszek-waclaw--concerto-a-clarinetto-principale-adagio.krn
!!!cenid: 18xx:1014
!!!COM: Raszek, Wacław
!!!COM-rismID: pe30020314
!!!CDT: <1848->1848
!!!CNT:
!!!OPR: Concerto a clarinetto principale
!!!OTL: Adagio
!!!OMV: 002
!!!PDT:
!!!AGN: Secular
!!!SMS-siglum: PL-CZ
!!!SMS-shelfmark: III-559
!!!SMS-shelfwork: 001-002 M
!!!SMS-variant:
!!!SMS-altvar:
!!!NIFC-rismSourceID: 300001058
!!!NIFC-rismChildID: 300001058
!!!NIFC-islandoraID: pl-cz:39059
!!!URL-pdf-islandora: https://repozytorium.nifc.pl/islandora/object/pl-cz%3A39059/datastream/PDF/view
!!!URL-scan:
!!!ONB-nifc: UWAGA: części Koncertu: Allegro, Adagio, Rondo
!!!AIN: 1 clars 2 cor 2 oboe|Iflt 1 viola 1 viole 2 violn
!!!OMD:
!!!OMD-mod: Adagio
!!!key: E-
**kern	**dynam	**kern	**dynam	**kern	**dynam	**kern	**dynam	**kern	**kern	**dynam	**kern	**dynam	**kern	**kern
*group3	*	*group3	*	*group3	*	*group3	*	*	*group2	*	*group2	*	*group1	*group1
*part9	*part9	*part8	*part8	*part7	*part7	*part6	*part6	*part5	*part4	*part4	*part3	*part3	*part2	*part1
*staff9	*	*staff8	*	*staff7	*	*staff6	*	*staff5	*staff4	*	*staff3	*	*staff2	*staff1
*I"Baſso Violone	*	*I"Viola di Alto.	*	*I"Violino. Secondo.	*	*I"Violino Primo.	*	*I"Clarinetto Principale	*I"Cornu Secondo in B.	*	*I"Cornu Primo in B	*	*I"Oboe vel Flauto Secondo.	*I"Oboe vel Flauto Primo
*mI"Violone	*	*mI"Viola	*	*mI"Violino II	*	*mI"Violino I	*	*mI"Clarinetto	*mI"Corno II in Eb	*	*mI"Corno I in Eb	*	*mI"Oboe vel Flauto II	*mI"Oboe vel Flauto I
*I'vlne	*	*I'vla	*	*I'vl 2	*	*I'vl 1	*	*I'cl	*I'cor 2 in B|b	*	*I'cor 1 in B|b	*	*I'ob vel fl 2	*I'ob vel fl 1
*	*	*	*	*	*	*	*	*	*mI'cor 2 in E|b	*	*mI'cor 1 in E|b	*	*	*
*Iviole	*	*Iviola	*	*Ivioln	*	*Ivioln	*	*Iclars	*Icor	*	*Icor	*	*Ioboe|Iflt	*Ioboe|Iflt
*ICstr	*	*ICstr	*	*ICstr	*	*ICstr	*	*ICww	*ICbras	*	*ICbras	*	*ICww	*ICww
*	*	*	*	*	*	*	*	*tacet	*	*	*	*	*tacet	*tacet
*clefF4	*	*clefC3	*	*clefG2	*	*clefG2	*	*	*clefG2	*	*clefG2	*	*	*
*	*	*	*	*	*	*	*	*	*ITrd5c9	*	*ITrd5c9	*	*	*
*k[b-e-a-]	*	*k[b-e-a-]	*	*k[b-e-a-]	*	*k[b-e-a-]	*	*	*k[b-e-a-]	*	*k[b-e-a-]	*	*	*
*E-:	*	*E-:	*	*E-:	*	*E-:	*	*E-:	*E-:	*	*E-:	*	*E-:	*E-:
!	!	!	!	!	!	!	!	!	!LO:MO:mod=*M3/4	!	!	!	!	!
*M3/4	*	*M3/4	*	*M3/4	*	*M3/4	*	*	*null	*	*M3/4	*	*	*
=1	=1	=1	=1	=1	=1	=1	=1	=1	=1	=1	=1	=1	=1	=1
!	!	!LO:TX:t=P:problem=błędne znaki przykluczowe [B- e- g-]:mod=	!	!	!	!LO:TX:a:t=8:mod=	!	!	!	!	!	!	!	!
!LO:TX:a:t=Adagio:mod=	!LO:DY:rj:a:t=p&colon;:mod=%s	!LO:TX:a:t=Adagio:mod=	!LO:DY:a:t=pp&colon;:mod=p	!LO:TX:a:t=Adagio:mod=	!LO:DY:a:rj:t=p&colon;:mod=%s	!LO:TX:a:t=Adagio:mod=	!LO:DY:rj:a:t=p&colon;:mod= 	!LO:TX:t=P:problem=zgodnie z RISM "cl solo missing":mod=	!LO:TX:a:t=in Dis\nAdagio:mod=	!	!LO:TX:a:t=Adagio\nin Dis:mod=	!LO:DY:a:t=p&colon;:mod= 	!LO:TX:a:t=Adagio Tacet.:mod=	!LO:TX:a:t=Adagio Tacet.:mod=
4E-\	p	4E-/	pp	4G/	p	8r	p	2.ryy	0.r	.	0.r	p	2.ryy	2.ryy
!	!	!	!	!	!	!	!LO:DY:t= :mod=	!	!	!	!	!	!	!
.	.	.	.	.	.	16e-/LL	p	.	.	.	.	.	.	.
.	.	.	.	.	.	16f/JJ	.	.	.	.	.	.	.	.
*	*	*	*	*	*	*tremolo	*	*	*	*	*	*	*	*
4r	.	4r	.	4r	.	8e-/L	.	.	.	.	.	.	.	.
.	.	.	.	.	.	8e-/	.	.	.	.	.	.	.	.
4r	.	4r	.	4r	.	8e-/	.	.	.	.	.	.	.	.
.	.	.	.	.	.	8e-/J	.	.	.	.	.	.	.	.
*	*	*	*	*	*	*Xtremolo	*	*	*	*	*	*	*	*
=2	=2	=2	=2	=2	=2	=2	=2	=2	=2	=2	=2	=2	=2	=2
!	!	!	!	!	!LO:DY:a:t=frp:mod=%s	!	!LO:DY:a:t=fp&colon;:mod=%s	!	!	!	!	!	!	!
8r	.	8r	.	4c/	fp	4a-/	fp	2.ryy	.	.	.	.	2.ryy	2.ryy
8E-\	.	8e-\L	.	.	.	.	.	.	.	.	.	.	.	.
!LO:MO:mod=*null:null	!	!	!	!	!	!	!	!	!	!	!	!	!	!
*2\right	*	*	*	*	*	*	*	*	*	*	*	*	*	*
*tremolo	*	*	*	*	*	*	*	*	*	*	*	*	*	*
8E-\L	.	8e-\	.	4B-/	.	4g/	.	.	.	.	.	.	.	.
8E-\	.	8e-\	.	.	.	.	.	.	.	.	.	.	.	.
8E-\	.	8d\	.	4A-/	.	4f/	.	.	.	.	.	.	.	.
8E-\J	.	8d\J	.	.	.	.	.	.	.	.	.	.	.	.
*Xtremolo	*	*	*	*	*	*	*	*	*	*	*	*	*	*
=3	=3	=3	=3	=3	=3	=3	=3	=3	=3	=3	=3	=3	=3	=3
4E-\	.	4e-\	.	4G/	.	8e-/L	.	2.ryy	.	.	.	.	2.ryy	2.ryy
.	.	.	.	.	.	16e-/L	.	.	.	.	.	.	.	.
.	.	.	.	.	.	16f/JJ	.	.	.	.	.	.	.	.
*	*	*	*	*	*	*tremolo	*	*	*	*	*	*	*	*
4r	.	4r	.	4r	.	8e-/L	.	.	.	.	.	.	.	.
.	.	.	.	.	.	8e-/	.	.	.	.	.	.	.	.
4r	.	4r	.	4r	.	8e-/	.	.	.	.	.	.	.	.
.	.	.	.	.	.	8e-/J	.	.	.	.	.	.	.	.
*	*	*	*	*	*	*Xtremolo	*	*	*	*	*	*	*	*
=4	=4	=4	=4	=4	=4	=4	=4	=4	=4	=4	=4	=4	=4	=4
!	!	!	!	!	!	!	!LO:MO:mod=!LO&colon;DY&colon;ed=brack	!	!	!	!	!	!	!
!	!	!	!	!	!LO:DY:a:t=frp&colon;:mod=%s	!	!LO:DY:t= :mod=	!	!	!	!	!	!	!
8r	.	8r	.	4a-/	fp	4cc/	fp	2.ryy	.	.	.	.	2.ryy	2.ryy
8E-\	.	8e-\L	.	.	.	.	.	.	.	.	.	.	.	.
*tremolo	*	*	*	*	*	*	*	*	*	*	*	*	*	*
8E-\L	.	8e-\	.	4g/	.	4b-/	.	.	.	.	.	.	.	.
8E-\	.	8e-\	.	.	.	.	.	.	.	.	.	.	.	.
8E-\	.	8d\	.	4f/	.	4a-/	.	.	.	.	.	.	.	.
8E-\J	.	8d\J	.	.	.	.	.	.	.	.	.	.	.	.
*Xtremolo	*	*	*	*	*	*	*	*	*	*	*	*	*	*
=5	=5	=5	=5	=5	=5	=5	=5	=5	=5	=5	=5	=5	=5	=5
4E-\	.	4e-\	.	4e-/	.	8g\L	.	2.ryy	0.r	.	0.r	.	2.ryy	2.ryy
.	.	.	.	.	.	(32ee-\LL	.	.	.	.	.	.	.	.
.	.	.	.	.	.	32dd\	.	.	.	.	.	.	.	.
.	.	.	.	.	.	32ee-\	.	.	.	.	.	.	.	.
.	.	.	.	.	.	32ff\JJJ)	.	.	.	.	.	.	.	.
4r	.	4r	.	4r	.	8ee-\L	.	.	.	.	.	.	.	.
.	.	.	.	.	.	8ee-\J	.	.	.	.	.	.	.	.
4r	.	4r	.	4r	.	(16ee-\LL	.	.	.	.	.	.	.	.
.	.	.	.	.	.	16ff\)	.	.	.	.	.	.	.	.
.	.	.	.	.	.	(16ff#X\	.	.	.	.	.	.	.	.
.	.	.	.	.	.	16gg\JJ)	.	.	.	.	.	.	.	.
=6	=6	=6	=6	=6	=6	=6	=6	=6	=6	=6	=6	=6	=6	=6
8r	.	8r	.	8r	.	4.ee-\	.	2.ryy	.	.	.	.	2.ryy	2.ryy
8G\	.	8e-\	.	8e-/	.	.	.	.	.	.	.	.	.	.
*tremolo	*	*tremolo	*	*	*	*	*	*	*	*	*	*	*	*
*	*	*	*	*tremolo	*	*	*	*	*	*	*	*	*	*
8G\L	.	8B-/L	.	8e-/L	.	.	.	.	.	.	.	.	.	.
8G\	.	8B-/	.	8e-/	.	8bb-\L	.	.	.	.	.	.	.	.
.	.	.	.	.	.	8qaa-/	.	.	.	.	.	.	.	.
8G\	.	8B-/	.	8e-/	.	8gg\	.	.	.	.	.	.	.	.
.	.	.	.	.	.	8qff/	.	.	.	.	.	.	.	.
8G\J	.	8B-/J	.	8e-/J	.	8ee-\J	.	.	.	.	.	.	.	.
*Xtremolo	*	*Xtremolo	*	*	*	*	*	*	*	*	*	*	*	*
=7	=7	=7	=7	=7	=7	=7	=7	=7	=7	=7	=7	=7	=7	=7
8r	.	8r	.	8r	.	16dd\LL	.	2.ryy	.	.	.	.	2.ryy	2.ryy
.	.	.	.	.	.	16cc\	.	.	.	.	.	.	.	.
!	!	!LO:SIC:v:s=8c	!	!	!	!	!	!	!	!	!	!	!	!
8A-\	.	8c/L	.	8e-/	.	16bn\	.	.	.	.	.	.	.	.
.	.	.	.	.	.	16cc\JJ	.	.	.	.	.	.	.	.
!	!	!LO:MO:mod=*tremolo	!	!	!	!	!	!	!	!	!	!	!	!
*tremolo	*	*null	*	*	*	*	*	*	*	*	*	*	*	*
!	!	!LO:SIC:v:s=8A-L	!	!	!	!	!	!	!	!	!	!	!	!
8A-\L	.	8A-/	.	8e-/L	.	4.cc\	.	.	.	.	.	.	.	.
8A-\	.	8A-/	.	8e-/	.	.	.	.	.	.	.	.	.	.
8A-\	.	8A-/	.	8e-/	.	.	.	.	.	.	.	.	.	.
8A-\J	.	8A-/J	.	8e-/J	.	16ee-\LL	.	.	.	.	.	.	.	.
.	.	.	.	.	.	16cc\JJ	.	.	.	.	.	.	.	.
!	!	!LO:MO:mod=*Xtremolo	!	!	!	!	!	!	!	!	!	!	!	!
*Xtremolo	*	*null	*	*Xtremolo	*	*	*	*	*	*	*	*	*	*
=8	=8	=8	=8	=8	=8	=8	=8	=8	=8	=8	=8	=8	=8	=8
8r	.	8r	.	8r	.	4b-/	.	2.ryy	.	.	.	.	2.ryy	2.ryy
!LO:TX:t=P:problem=mixed beam:mod=	!	!	!	!	!	!	!	!	!	!	!	!	!	!
8B-\L	.	8G/L	.	8e-/L	.	.	.	.	.	.	.	.	.	.
8B-\	.	8G/	.	8e-/	.	(16b-/LL	.	.	.	.	.	.	.	.
.	.	.	.	.	.	16an/)	.	.	.	.	.	.	.	.
8B-\	.	8G/	.	8e-/J	.	(16a-X/	.	.	.	.	.	.	.	.
.	.	.	.	.	.	16g/JJ)	.	.	.	.	.	.	.	.
8BB-/	.	8B-/	.	8A-/L	.	16g/LL	.	.	.	.	.	.	.	.
.	.	.	.	.	.	16f/	.	.	.	.	.	.	.	.
8BB-/J	.	8B-/J	.	8A-/J	.	16e-/	.	.	.	.	.	.	.	.
.	.	.	.	.	.	16d/JJ	.	.	.	.	.	.	.	.
!	!	!	!	!	!	!LO:LB:g=original	!	!	!	!	!	!	!	!
=9	=9	=9	=9	=9	=9	=9	=9	=9	=9	=9	=9	=9	=9	=9
!	!	!	!	!	!	!	!	!	!LO:MO:mod=*null:null	!	!	!	!	!
*	*	*	*	*	*	*	*	*	*M3/4	*	*	*	*	*
!	!	!	!	!	!	!	!	!	!LO:TX:t=P:problem=mixed beam:mod=	!LO:DY:a:t=p&colon;:mod=%s	!	!LO:DY:t= :mod=%s	!	!
4E-\	.	4e-\	.	4G/	.	4e-/	.	2.ryy	8G/L	p	8e-\L	p	2.ryy	2.ryy
.	.	.	.	.	.	.	.	.	8e-\	.	8g\	.	.	.
4r	.	4r	.	4r	.	4r	.	.	8e-\	.	8g\	.	.	.
.	.	.	.	.	.	.	.	.	8e-\J	.	8g\J	.	.	.
4BB-/	.	4r	.	4r	.	4r	.	.	16g\LL	.	16b-\LL	.	.	.
.	.	.	.	.	.	.	.	.	16e-\	.	16g\	.	.	.
.	.	.	.	.	.	.	.	.	16f\	.	16a-\	.	.	.
.	.	.	.	.	.	.	.	.	16B-\JJ	.	16f\JJ	.	.	.
!	!	!LO:LB:g=original	!	!	!	!	!	!	!	!	!	!	!	!
=10	=10	=10	=10	=10	=10	=10	=10	=10	=10	=10	=10	=10	=10	=10
!	!	!LO:TX:t=P:problem=mixed beam:mod=	!	!	!	!LO:TX:t=P:problem=mixed beam:mod=	!	!	!	!	!	!	!	!
4E-\	.	8e-\L	.	16G/LL	.	8e-/L	.	2.ryy	4G/	.	4e-\	.	2.ryy	2.ryy
.	.	.	.	16B-/	.	.	.	.	.	.	.	.	.	.
.	.	8G/	.	16G/	.	8ee-\	.	.	.	.	.	.	.	.
.	.	.	.	16B-/JJ	.	.	.	.	.	.	.	.	.	.
*	*	*	*	*rep	*	*	*	*	*	*	*	*	*	*
4G\	.	8B-/	.	16G/LL	.	8ee-\	.	.	4r	.	4r	.	.	.
.	.	.	.	16B-/	.	.	.	.	.	.	.	.	.	.
.	.	8G/	.	16G/	.	8ee-\J	.	.	.	.	.	.	.	.
.	.	.	.	16B-/JJ	.	.	.	.	.	.	.	.	.	.
.	.	.	.	.	.	8qaa-/	.	.	.	.	.	.	.	.
*	*	*	*	*Xrep	*	*	*	*	*	*	*	*	*	*
*	*	*	*	*rep	*	*	*	*	*	*	*	*	*	*
4E-\	.	8B-/	.	16G/LL	.	8gg\L	.	.	4G/	.	4e-\	.	.	.
.	.	.	.	16B-/	.	.	.	.	.	.	.	.	.	.
.	.	8G/J	.	16G/	.	16ff\L	.	.	.	.	.	.	.	.
.	.	.	.	16B-/JJ	.	16ee-\JJ	.	.	.	.	.	.	.	.
*	*	*	*	*Xrep	*	*	*	*	*	*	*	*	*	*
!	!	!	!	!LO:LB:g=original	!	!	!	!	!	!	!	!	!	!
=11	=11	=11	=11	=11	=11	=11	=11	=11	=11	=11	=11	=11	=11	=11
4BB-/	.	16B-/LL	.	4A-/	.	16dd\LL	.	2.ryy	4B-/	.	4f\	.	2.ryy	2.ryy
.	.	16c/	.	.	.	16ee-\	.	.	.	.	.	.	.	.
.	.	16d/	.	.	.	16ff\	.	.	.	.	.	.	.	.
.	.	16e-/JJ	.	.	.	16gg\JJ	.	.	.	.	.	.	.	.
4B-\	.	16f\LL	.	4f/	.	16aa-\LL	.	.	4B-/	.	4f\	.	.	.
.	.	16e-\	.	.	.	16gg\	.	.	.	.	.	.	.	.
.	.	16d\	.	.	.	16ff\	.	.	.	.	.	.	.	.
.	.	16c\JJ	.	.	.	16ee-\JJ	.	.	.	.	.	.	.	.
4r	.	16B-/LL	.	4r	.	16dd/LL	.	.	4r	.	4r	.	.	.
.	.	16A-/	.	.	.	16cc/	.	.	.	.	.	.	.	.
.	.	16G/	.	.	.	16b-/	.	.	.	.	.	.	.	.
.	.	16F/JJ	.	.	.	16a-/JJ	.	.	.	.	.	.	.	.
!LO:LB:g=original	!	!	!	!	!	!	!	!	!	!	!	!	!	!
=12	=12	=12	=12	=12	=12	=12	=12	=12	=12	=12	=12	=12	=12	=12
!	!	!	!	!	!	!LO:TX:t=P:problem=mixed beam:mod=	!	!	!	!	!	!	!	!
4E-\	.	4E-/	.	16G/LL	.	8g/L	.	2.ryy	4e-\	.	4g\	.	2.ryy	2.ryy
.	.	.	.	16B-/	.	.	.	.	.	.	.	.	.	.
.	.	.	.	16G/	.	8ee-\	.	.	.	.	.	.	.	.
.	.	.	.	16B-/JJ	.	.	.	.	.	.	.	.	.	.
*	*	*	*	*rep	*	*	*	*	*	*	*	*	*	*
4G\	.	4B-/	.	16G/LL	.	8ee-\	.	.	4G/	.	4e-\	.	.	.
.	.	.	.	16B-/	.	.	.	.	.	.	.	.	.	.
.	.	.	.	16G/	.	8ee-\J	.	.	.	.	.	.	.	.
.	.	.	.	16B-/JJ	.	.	.	.	.	.	.	.	.	.
*	*	*	*	*Xrep	*	*	*	*	*	*	*	*	*	*
*	*	*	*	*rep	*	*	*	*	*	*	*	*	*	*
4E-\	.	4B-/	.	16G/LL	.	16bb-\LL	.	.	4G/	.	4e-\	.	.	.
.	.	.	.	16B-/	.	16gg\	.	.	.	.	.	.	.	.
.	.	.	.	16G/	.	16ff\	.	.	.	.	.	.	.	.
.	.	.	.	16B-/JJ	.	16ee-\JJ	.	.	.	.	.	.	.	.
*	*	*	*	*Xrep	*	*	*	*	*	*	*	*	*	*
=13	=13	=13	=13	=13	=13	=13	=13	=13	=13	=13	=13	=13	=13	=13
4BB-/	.	16B-\LL	.	4A-/	.	16dd\LL	.	2.ryy	4B-/	.	4f\	.	2.ryy	2.ryy
.	.	16c\	.	.	.	16ee-\	.	.	.	.	.	.	.	.
.	.	16d\	.	.	.	16ff\	.	.	.	.	.	.	.	.
.	.	16e-\JJ	.	.	.	16gg\JJ	.	.	.	.	.	.	.	.
4B-\	.	16f\LL	.	4d/	.	16aa-\LL	.	.	4B-/	.	4f\	.	.	.
.	.	16e-\	.	.	.	16gg\	.	.	.	.	.	.	.	.
.	.	16d\	.	.	.	16ff\	.	.	.	.	.	.	.	.
.	.	16c\JJ	.	.	.	16ee-\JJ	.	.	.	.	.	.	.	.
4r	.	16B-/LL	.	4r	.	16dd\LL	.	.	4r	.	4r	.	.	.
.	.	16A-/	.	.	.	16cc\	.	.	.	.	.	.	.	.
.	.	16G/	.	.	.	16b-\	.	.	.	.	.	.	.	.
.	.	16F/JJ	.	.	.	16a-\JJ	.	.	.	.	.	.	.	.
=14	=14	=14	=14	=14	=14	=14	=14	=14	=14	=14	=14	=14	=14	=14
8E-\L	.	8E-/L	.	8B-/L	.	8g/L	.	2.ryy	4e-\	.	4g\	.	2.ryy	2.ryy
8E-\J	.	8E-/J	.	8B-/J	.	16b-/L	.	.	.	.	.	.	.	.
.	.	.	.	.	.	16g/JJ	.	.	.	.	.	.	.	.
!	!	!LO:MO:mod=*null:null	!	!	!	!	!	!	!	!	!	!	!	!
*	*	*2\right	*	*	*	*	*	*	*	*	*	*	*	*
*tremolo	*	*tremolo	*	*tremolo	*	*	*	*	*	*	*	*	*	*
!	!	!	!	!	!	!LO:TX:t=P:problem=mixed beam:mod=	!	!	!	!	!	!	!	!
8G\L	.	8e-\L	.	8B-/L	.	8e-/L	.	.	8r	.	8r	.	.	.
8G\	.	8e-\	.	8B-/	.	16bb-\L	.	.	8E-/L	.	8e-\L	.	.	.
.	.	.	.	.	.	16gg\JJ	.	.	.	.	.	.	.	.
8G\	.	8e-\	.	8B-/	.	16ff\LL	.	.	8E-/	.	8e-\	.	.	.
.	.	.	.	.	.	16ee-\	.	.	.	.	.	.	.	.
8G\J	.	8e-\J	.	8B-/J	.	16gg\	.	.	8E-/J	.	8e-\J	.	.	.
.	.	.	.	.	.	16ee-\JJ	.	.	.	.	.	.	.	.
*Xtremolo	*	*	*	*Xtremolo	*	*	*	*	*	*	*	*	*	*
=15	=15	=15	=15	=15	=15	=15	=15	=15	=15	=15	=15	=15	=15	=15
!LO:TX:t=P:problem=mixed beam:mod=	!	!	!	!	!	!	!	!	!	!	!	!	!	!
.	.	.	.	.	.	8qdd/	.	.	.	.	.	.	.	.
8A-\L	.	8c\L	.	8e-/L	.	8cc/L	.	2.ryy	4E-/	.	4e-\	.	2.ryy	2.ryy
8A-\	.	8c\J	.	8e-/	.	16b-/L	.	.	.	.	.	.	.	.
.	.	.	.	.	.	16a-/JJ	.	.	.	.	.	.	.	.
8B-\	.	8B-/L	.	8e-/	.	4g/	.	.	4e-\	.	4g\	.	.	.
8B-\	.	8B-/	.	8e-/	.	.	.	.	.	.	.	.	.	.
8BB-/	.	8B-/	.	8d/	.	4fT/	.	.	4B-/	.	4f\	.	.	.
8BB-/J	.	8B-/J	.	8d/J	.	.	.	.	.	.	.	.	.	.
*	*	*Xtremolo	*	*	*	*	*	*	*	*	*	*	*	*
=16	=16	=16	=16	=16	=16	=16	=16	=16	=16	=16	=16	=16	=16	=16
!	!	!LO:TX:t=P:problem=mixed beam:mod=	!	!	!	!	!	!	!	!	!	!	!	!
4E-\	.	8e-\L	.	8e-/L	.	4e-/	.	2.ryy	4G/	.	4e-\	.	2.ryy	2.ryy
.	.	8G/	.	8B-/	.	.	.	.	.	.	.	.	.	.
4r	.	8E-/	.	8G/	.	4r	.	.	4r	.	4r	.	.	.
.	.	8G/	.	8B-/	.	.	.	.	.	.	.	.	.	.
!	!	!	!	!	!	!	!LO:DY:a:t=p&colon;:mod= 	!	!	!LO:DY:t= :mod=%s	!	!LO:DY:rj:a:t=pp&colon;:mod=%s	!	!
4BB-/	.	8F/	.	8A-/	.	16a-/LL	p	.	4B-/	pp	4f\	pp	.	.
.	.	.	.	.	.	16f/	.	.	.	.	.	.	.	.
.	.	8B-/J	.	8B-/J	.	16e-/	.	.	.	.	.	.	.	.
.	.	.	.	.	.	16d/JJ	.	.	.	.	.	.	.	.
!	!	!	!	!	!	!LO:LB:g=original	!	!	!	!	!	!	!	!
=17	=17	=17	=17	=17	=17	=17	=17	=17	=17	=17	=17	=17	=17	=17
4E-\	.	8E-/L	.	8G/L	.	4e-/	.	2.ryy	4G/	.	4e-\	.	2.ryy	2.ryy
.	.	8G/	.	8B-/	.	.	.	.	.	.	.	.	.	.
4r	.	8E-/	.	8G/	.	4r	.	.	4r	.	4r	.	.	.
.	.	8G/	.	8B-/	.	.	.	.	.	.	.	.	.	.
4BB-/	.	8F/	.	8A-/	.	16a-/LL	.	.	4B-/	.	4e-\	.	.	.
.	.	.	.	.	.	16f/	.	.	.	.	.	.	.	.
.	.	8B-/J	.	8B-/J	.	16e-/	.	.	.	.	.	.	.	.
.	.	.	.	.	.	16d/JJ	.	.	.	.	.	.	.	.
=18	=18	=18	=18	=18	=18	=18	=18	=18	=18	=18	=18	=18	=18	=18
8E-\L	.	4B-/	.	4G/	.	8e-/L	.	2.ryy	8G/L	.	8e-\L	.	2.ryy	2.ryy
8E-\J	.	.	.	.	.	8e-/J	.	.	8G/J	.	8e-\J	.	.	.
4E-\	.	4B-/	.	4G/	.	4e-/	.	.	4G/	.	4e-\	.	.	.
4r	.	4r	.	4r	.	4r	.	.	4r	.	4r	.	.	.
!	!	!	!	!	!	!	!	!	!LO:LB:g=original	!	!	!	!	!
=19	=19	=19	=19	=19	=19	=19	=19	=19	=19	=19	=19	=19	=19	=19
!!LO:TX:a:t= :mod=Solo
!LO:TX:a:t=Solo:mod=	!	!LO:TX:a:t=Solo:mod=	!	!LO:TX:a:t=Solo:mod=	!	!LO:TX:a:t=Solo:mod=	!	!	!LO:TX:a:t=25:mod=	!	!LO:TX:a:t=25.:mod=	!	!	!
4EE-/	.	4E-/	.	4G/	.	4e-/	.	2.ryy	0.r	.	0.r	.	2.ryy	2.ryy
4r	.	4r	.	4r	.	4r	.	.	.	.	.	.	.	.
!	!LO:DY:a:t=pp&colon;:mod= 	!	!LO:DY:a:t=pp&colon;:mod= 	!	!LO:DY:a:t=pp&colon;:mod= 	!	!	!	!	!	!	!	!	!
4r	pp	4r	pp	4r	pp	4r	.	.	.	.	.	.	.	.
=20	=20	=20	=20	=20	=20	=20	=20	=20	=20	=20	=20	=20	=20	=20
!	!	!	!	!	!LO:DY:t= :mod=%s	!	!	!	!	!	!	!	!	!
8r	.	8r	.	4c/	pp	8r	.	2.ryy	.	.	.	.	2.ryy	2.ryy
!	!	!	!	!	!	!	!LO:MO:mod=!LO&colon;DY&colon;ed=brack	!	!	!	!	!	!	!
!	!LO:DY:t= :mod=%s	!	!LO:DY:t= :mod=%s	!	!	!	!LO:DY:t= :mod=%s	!	!	!	!	!	!	!
8E-\	pp	8E-/L	pp	.	.	8e-/	pp	.	.	.	.	.	.	.
*tremolo	*	*	*	*	*	*	*	*	*	*	*	*	*	*
8E-\L	.	8E-/	.	4B-/	.	8e-/L	.	.	.	.	.	.	.	.
8E-\	.	8E-/	.	.	.	8e-/	.	.	.	.	.	.	.	.
8E-\	.	8B-/	.	4A-/	.	8d/	.	.	.	.	.	.	.	.
8E-\J	.	8B-/J	.	.	.	8d/J	.	.	.	.	.	.	.	.
*Xtremolo	*	*	*	*	*	*	*	*	*	*	*	*	*	*
!	!	!LO:LB:g=original	!	!	!	!	!	!	!	!	!	!	!	!
=21	=21	=21	=21	=21	=21	=21	=21	=21	=21	=21	=21	=21	=21	=21
4E-\	.	4B-/	.	4G/	.	4e-/	.	2.ryy	.	.	.	.	2.ryy	2.ryy
4r	.	4r	.	4r	.	4r	.	.	.	.	.	.	.	.
4r	.	4r	.	4r	.	4r	.	.	.	.	.	.	.	.
=22	=22	=22	=22	=22	=22	=22	=22	=22	=22	=22	=22	=22	=22	=22
8r	.	8r	.	8r	.	4a-/	.	2.ryy	.	.	.	.	2.ryy	2.ryy
8E-\	.	8e-\L	.	8e-/L	.	.	.	.	.	.	.	.	.	.
*tremolo	*	*	*	*	*	*	*	*	*	*	*	*	*	*
8E-\L	.	8e-\	.	8e-/	.	4g/	.	.	.	.	.	.	.	.
8E-\	.	8B-\	.	8e-/J	.	.	.	.	.	.	.	.	.	.
8E-\	.	8B-\	.	8d/L	.	4f/	.	.	.	.	.	.	.	.
8E-\J	.	8B-\J	.	8d/J	.	.	.	.	.	.	.	.	.	.
*Xtremolo	*	*	*	*	*	*	*	*	*	*	*	*	*	*
!	!	!	!	!LO:LB:g=original	!	!	!	!	!	!	!	!	!	!
=23	=23	=23	=23	=23	=23	=23	=23	=23	=23	=23	=23	=23	=23	=23
4E-\	.	4B-/	.	4e-/	.	4e-/	.	2.ryy	0.r	.	0.r	.	2.ryy	2.ryy
4r	.	4r	.	4r	.	4r	.	.	.	.	.	.	.	.
4r	.	4r	.	4r	.	4r	.	.	.	.	.	.	.	.
=24	=24	=24	=24	=24	=24	=24	=24	=24	=24	=24	=24	=24	=24	=24
!LO:TX:a:t=2.:mod=	!	!	!	!	!	!	!	!	!	!	!	!	!	!
1.r	.	1.r	.	8r	.	8r	.	2.ryy	.	.	.	.	2.ryy	2.ryy
.	.	.	.	8G/	.	8e-/	.	.	.	.	.	.	.	.
*	*	*	*	*tremolo	*	*tremolo	*	*	*	*	*	*	*	*
.	.	.	.	8G/L	.	8e-/L	.	.	.	.	.	.	.	.
.	.	.	.	8G/	.	8e-/	.	.	.	.	.	.	.	.
.	.	.	.	8G/	.	8e-/	.	.	.	.	.	.	.	.
.	.	.	.	8G/J	.	8e-/J	.	.	.	.	.	.	.	.
*	*	*	*	*Xtremolo	*	*Xtremolo	*	*	*	*	*	*	*	*
=25	=25	=25	=25	=25	=25	=25	=25	=25	=25	=25	=25	=25	=25	=25
.	.	.	.	8r	.	8r	.	2.ryy	.	.	.	.	2.ryy	2.ryy
!	!	!	!	!	!	!LO:SIC:v:s=8e-L	!	!	!	!	!	!	!	!
.	.	.	.	8A-/L	.	8e-/	.	.	.	.	.	.	.	.
!	!	!	!	!	!	!LO:SIC:v:s=8e-J	!	!	!	!	!	!	!	!
.	.	.	.	8A-/J	.	8e-/	.	.	.	.	.	.	.	.
.	.	.	.	8r	.	8r	.	.	.	.	.	.	.	.
.	.	.	.	4r	.	4r	.	.	.	.	.	.	.	.
=26	=26	=26	=26	=26	=26	=26	=26	=26	=26	=26	=26	=26	=26	=26
4r	.	4r	.	4r	.	4r	.	2.ryy	.	.	.	.	2.ryy	2.ryy
!	!LO:DY:a:mod= 	!	!	!	!	!	!	!	!	!	!	!	!	!
8r	pp	8r	.	8r	.	8r	.	.	.	.	.	.	.	.
8An\L	.	8e-\L	.	8c/L	.	8f/L	.	.	.	.	.	.	.	.
8A\	.	8e-\	.	8c/	.	8f/	.	.	.	.	.	.	.	.
8A\J	.	8e-\J	.	8c/J	.	8f/J	.	.	.	.	.	.	.	.
!LO:LB:g=original	!	!	!	!	!	!	!	!	!	!	!	!	!	!
=27	=27	=27	=27	=27	=27	=27	=27	=27	=27	=27	=27	=27	=27	=27
4B-\	.	4d\	.	4B-/	.	4f/	.	2.ryy	0.r	.	0.r	.	2.ryy	2.ryy
4BB-/	.	4B-/	.	16r	.	16r	.	.	.	.	.	.	.	.
.	.	.	.	16B-/LL	.	16d/LL	.	.	.	.	.	.	.	.
.	.	.	.	16B-/	.	16d/	.	.	.	.	.	.	.	.
.	.	.	.	16c/JJ	.	16e-/JJ	.	.	.	.	.	.	.	.
4r	.	4r	.	16d/LL	.	16f/LL	.	.	.	.	.	.	.	.
.	.	.	.	16e-/	.	16g/	.	.	.	.	.	.	.	.
.	.	.	.	16d/	.	16f/	.	.	.	.	.	.	.	.
.	.	.	.	16c/JJ	.	16e-/JJ	.	.	.	.	.	.	.	.
!	!	!	!	!	!	!LO:LB:g=original	!	!	!	!	!	!	!	!
=28	=28	=28	=28	=28	=28	=28	=28	=28	=28	=28	=28	=28	=28	=28
!LO:TX:t=P:problem=brak taktu nr 28:mod=	!	!LO:TX:t=P:problem=brak taktu nr 28:mod=	!	!	!	!	!	!	!	!	!	!	!	!
!LO:MO:mod=4BB-	!	!LO:MO:mod=4B-	!	!	!	!	!	!	!	!	!	!	!	!
4ryy	.	4ryy	.	4B-/	.	4d/	.	2.ryy	.	.	.	.	2.ryy	2.ryy
!LO:MO:mod=4r	!	!LO:MO:mod=4r	!	!	!	!	!	!	!	!	!	!	!	!
4ryy	.	4ryy	.	4r	.	4r	.	.	.	.	.	.	.	.
!LO:MO:mod=4r	!	!LO:MO:mod=4r	!	!	!	!	!	!	!	!	!	!	!	!
4ryy	.	4ryy	.	4r	.	4r	.	.	.	.	.	.	.	.
=29	=29	=29	=29	=29	=29	=29	=29	=29	=29	=29	=29	=29	=29	=29
!LO:MO:mod=!LO&colon;TX&colon;a&colon;t=pizz.	!	!LO:MO:mod=!LO&colon;TX&colon;a&colon;t=pizz.	!	!LO:MO:mod=!LO&colon;TX&colon;a&colon;i&colon;t=staccato	!	!LO:MO:mod=!LO&colon;TX&colon;a&colon;i&colon;t=staccato	!	!	!	!	!	!	!	!
!LO:TX:b:t=pizzicato	!	!LO:TX:a:t=pizzicato	!	!LO:TX:a:t=Staccato	!	!LO:TX:b:t=Stoccato	!	!	!	!	!	!	!	!
8B-\	.	8F/	.	8B-'/L	.	8d/L	.	2.ryy	.	.	.	.	2.ryy	2.ryy
8r	.	8r	.	8d'/	.	8f/	.	.	.	.	.	.	.	.
8B-\	.	8F/	.	8B-'/	.	8d/	.	.	.	.	.	.	.	.
8r	.	8r	.	8d'/	.	8f/	.	.	.	.	.	.	.	.
8B-\	.	8F/	.	8B-'/	.	8d/	.	.	.	.	.	.	.	.
8r	.	8r	.	8d'/J	.	8f/J	.	.	.	.	.	.	.	.
=30	=30	=30	=30	=30	=30	=30	=30	=30	=30	=30	=30	=30	=30	=30
8c\	.	8F/	.	8c/L	.	8e-/L	.	2.ryy	.	.	.	.	2.ryy	2.ryy
8r	.	8r	.	8An/	.	8f/	.	.	.	.	.	.	.	.
8F\	.	8F/	.	8c/	.	8e-/	.	.	.	.	.	.	.	.
8r	.	8r	.	8A/	.	8f/	.	.	.	.	.	.	.	.
8F\	.	8F/	.	8c/	.	8e-/	.	.	.	.	.	.	.	.
8r	.	8r	.	8A/J	.	8f/J	.	.	.	.	.	.	.	.
=31	=31	=31	=31	=31	=31	=31	=31	=31	=31	=31	=31	=31	=31	=31
*	*	*	*	*rep	*	*	*	*	*	*	*	*	*	*
8F\	.	8An/	.	8c/L	.	8e-'/L	.	2.ryy	0.r	.	0.r	.	2.ryy	2.ryy
8r	.	8r	.	8An/	.	8f'/	.	.	.	.	.	.	.	.
8F\	.	8A/	.	8c/	.	8e-'/	.	.	.	.	.	.	.	.
8r	.	8r	.	8A/	.	8f'/	.	.	.	.	.	.	.	.
8F\	.	8A/	.	8c/	.	8c'/	.	.	.	.	.	.	.	.
8r	.	8r	.	8A/J	.	8f'/J	.	.	.	.	.	.	.	.
*	*	*	*	*Xrep	*	*	*	*	*	*	*	*	*	*
=32	=32	=32	=32	=32	=32	=32	=32	=32	=32	=32	=32	=32	=32	=32
8B-\	.	8F/	.	8B-/L	.	8d'/L	.	2.ryy	.	.	.	.	2.ryy	2.ryy
8r	.	8r	.	8d/	.	8f'/	.	.	.	.	.	.	.	.
8BB-/	.	8F/	.	8B-/	.	8d'/	.	.	.	.	.	.	.	.
8r	.	8r	.	8d/	.	8f'/	.	.	.	.	.	.	.	.
8B-\	.	8F/	.	8B-/	.	8d'/	.	.	.	.	.	.	.	.
8r	.	8r	.	8d/J	.	8f'/J	.	.	.	.	.	.	.	.
!	!	!LO:LB:g=original	!	!	!	!	!	!	!	!	!	!	!	!
=33	=33	=33	=33	=33	=33	=33	=33	=33	=33	=33	=33	=33	=33	=33
8c\	.	8F/	.	8c/L	.	8e-'/L	.	2.ryy	.	.	.	.	2.ryy	2.ryy
8r	.	8r	.	8An/	.	8f'/	.	.	.	.	.	.	.	.
8F\	.	8F/	.	8c/	.	8e-'/	.	.	.	.	.	.	.	.
8r	.	8r	.	8A/	.	8f'/	.	.	.	.	.	.	.	.
8F\	.	8F/	.	8c/	.	8e-'/	.	.	.	.	.	.	.	.
8r	.	8r	.	8A/J	.	8f'/J	.	.	.	.	.	.	.	.
!	!	!	!	!LO:PB:g=original	!	!	!	!	!	!	!	!	!	!
=34	=34	=34	=34	=34	=34	=34	=34	=34	=34	=34	=34	=34	=34	=34
8F\	.	8An/	.	8c/L	.	8c'/L	.	2.ryy	.	.	.	.	2.ryy	2.ryy
8r	.	8r	.	8An/	.	8f'/	.	.	.	.	.	.	.	.
8An\	.	8A/	.	8c/	.	8e-'/	.	.	.	.	.	.	.	.
8r	.	8r	.	8A/	.	8f'/	.	.	.	.	.	.	.	.
8F\	.	8A/	.	8c/	.	8e-'/	.	.	.	.	.	.	.	.
8r	.	8r	.	8A/J	.	8f'/J	.	.	.	.	.	.	.	.
=35	=35	=35	=35	=35	=35	=35	=35	=35	=35	=35	=35	=35	=35	=35
!LO:MO:mod=!LO&colon;TX&colon;a&colon;t=arco	!	!	!	!	!	!	!	!	!	!	!	!	!	!
!LO:TX:a:t=Colarco	!	!	!	!	!	!	!	!	!	!	!	!	!	!
8B-\	.	8B-/	.	8B-/L	.	8d'/L	.	2.ryy	0.r	.	0.r	.	2.ryy	2.ryy
8r	.	8r	.	8d/	.	8f'/J	.	.	.	.	.	.	.	.
8r	.	4r	.	8B-/	.	8d'/	.	.	.	.	.	.	.	.
8B-\L	.	.	.	8d/	.	4b-/	.	.	.	.	.	.	.	.
8c\	.	4r	.	8e-/	.	.	.	.	.	.	.	.	.	.
8d\J	.	.	.	8f/J	.	8a-X/	.	.	.	.	.	.	.	.
=36	=36	=36	=36	=36	=36	=36	=36	=36	=36	=36	=36	=36	=36	=36
!LO:TX:t=P:problem=mixed beam:mod=	!	!LO:TX:a:t=8:mod=	!	!	!	!	!	!	!	!	!	!	!	!
8e-\L	.	0.r	.	8B-/L	.	8g'/L	.	2.ryy	.	.	.	.	2.ryy	2.ryy
8E-\J	.	.	.	8B-/	.	8g'/J	.	.	.	.	.	.	.	.
!LO:TX:t=P:problem=mixed beam:mod=	!	!	!	!	!	!	!	!	!	!	!	!	!	!
8F\L	.	.	.	8d/	.	8f/L	.	.	.	.	.	.	.	.
8F\	.	.	.	8d/	.	8f/	.	.	.	.	.	.	.	.
8FF/	.	.	.	8e-/	.	8an/	.	.	.	.	.	.	.	.
8FF/J	.	.	.	8e-/J	.	8a/J	.	.	.	.	.	.	.	.
!LO:LB:g=original	!	!	!	!	!	!	!	!	!	!	!	!	!	!
=37	=37	=37	=37	=37	=37	=37	=37	=37	=37	=37	=37	=37	=37	=37
8BB-/	.	.	.	16B-/LL	.	16b-/LL	.	2.ryy	.	.	.	.	2.ryy	2.ryy
.	.	.	.	16d/	.	16f/	.	.	.	.	.	.	.	.
8r	.	.	.	16B-/	.	16d/	.	.	.	.	.	.	.	.
.	.	.	.	16d/JJ	.	16f/JJ	.	.	.	.	.	.	.	.
*	*	*	*	*rep	*	*	*	*	*	*	*	*	*	*
8B-\	.	.	.	16B-/LL	.	16d/LL	.	.	.	.	.	.	.	.
.	.	.	.	16d/	.	16f/	.	.	.	.	.	.	.	.
8r	.	.	.	16B-/	.	16d/	.	.	.	.	.	.	.	.
.	.	.	.	16d/JJ	.	16f/JJ	.	.	.	.	.	.	.	.
*	*	*	*	*Xrep	*	*	*	*	*	*	*	*	*	*
*	*	*	*	*rep	*	*	*	*	*	*	*	*	*	*
4r	.	.	.	16B-/LL	.	16d/LL	.	.	.	.	.	.	.	.
.	.	.	.	16d/	.	16f/	.	.	.	.	.	.	.	.
.	.	.	.	16B-/	.	16d/	.	.	.	.	.	.	.	.
.	.	.	.	16d/JJ	.	16f/JJ	.	.	.	.	.	.	.	.
*	*	*	*	*Xrep	*	*	*	*	*	*	*	*	*	*
!	!	!	!	!	!	!LO:LB:g=original	!	!	!	!	!	!	!	!
=38	=38	=38	=38	=38	=38	=38	=38	=38	=38	=38	=38	=38	=38	=38
8FF/	.	.	.	16c/LL	.	16e-/LL	.	2.ryy	.	.	.	.	2.ryy	2.ryy
.	.	.	.	16An/	.	16f/	.	.	.	.	.	.	.	.
8r	.	.	.	16c/	.	16e-/	.	.	.	.	.	.	.	.
.	.	.	.	16A/JJ	.	16f/JJ	.	.	.	.	.	.	.	.
*	*	*	*	*rep	*	*rep	*	*	*	*	*	*	*	*
8F\	.	.	.	16c/LL	.	16e-/LL	.	.	.	.	.	.	.	.
.	.	.	.	16A/	.	16f/	.	.	.	.	.	.	.	.
8r	.	.	.	16c/	.	16e-/	.	.	.	.	.	.	.	.
.	.	.	.	16A/JJ	.	16f/JJ	.	.	.	.	.	.	.	.
*	*	*	*	*Xrep	*	*Xrep	*	*	*	*	*	*	*	*
*	*	*	*	*rep	*	*rep	*	*	*	*	*	*	*	*
8F\	.	.	.	16c/LL	.	16e-/LL	.	.	.	.	.	.	.	.
.	.	.	.	16A/	.	16f/	.	.	.	.	.	.	.	.
8r	.	.	.	16c/	.	16e-/	.	.	.	.	.	.	.	.
.	.	.	.	16A/JJ	.	16f/JJ	.	.	.	.	.	.	.	.
*	*	*	*	*Xrep	*	*Xrep	*	*	*	*	*	*	*	*
=39	=39	=39	=39	=39	=39	=39	=39	=39	=39	=39	=39	=39	=39	=39
8BB-/	.	.	.	16B-/LL	.	16d/LL	.	2.ryy	0.r	.	0.r	.	2.ryy	2.ryy
.	.	.	.	16d/	.	16f/	.	.	.	.	.	.	.	.
8r	.	.	.	16B-/	.	16d/	.	.	.	.	.	.	.	.
.	.	.	.	16d/JJ	.	16f/JJ	.	.	.	.	.	.	.	.
*	*	*	*	*rep	*	*rep	*	*	*	*	*	*	*	*
8B-\	.	.	.	16B-/LL	.	16d/LL	.	.	.	.	.	.	.	.
.	.	.	.	16d/	.	16f/	.	.	.	.	.	.	.	.
8r	.	.	.	16B-/	.	16d/	.	.	.	.	.	.	.	.
.	.	.	.	16d/JJ	.	16f/JJ	.	.	.	.	.	.	.	.
*	*	*	*	*Xrep	*	*Xrep	*	*	*	*	*	*	*	*
*	*	*	*	*rep	*	*rep	*	*	*	*	*	*	*	*
4r	.	.	.	16B-/LL	.	16d/LL	.	.	.	.	.	.	.	.
.	.	.	.	16d/	.	16f/	.	.	.	.	.	.	.	.
.	.	.	.	16B-/	.	16d/	.	.	.	.	.	.	.	.
.	.	.	.	16d/JJ	.	16f/JJ	.	.	.	.	.	.	.	.
*	*	*	*	*Xrep	*	*Xrep	*	*	*	*	*	*	*	*
=40	=40	=40	=40	=40	=40	=40	=40	=40	=40	=40	=40	=40	=40	=40
8FF/	.	0.r	.	16c/LL	.	16e-/LL	.	2.ryy	.	.	.	.	2.ryy	2.ryy
!	!	!	!	!LO:SIC:v:s=16A	!	!	!	!	!	!	!	!	!	!
.	.	.	.	16A-/	.	16f/	.	.	.	.	.	.	.	.
8r	.	.	.	16c/	.	16e-/	.	.	.	.	.	.	.	.
!	!	!	!	!LO:SIC:v:s=16AJJ	!	!	!	!	!	!	!	!	!	!
.	.	.	.	16A-/JJ	.	16f/JJ	.	.	.	.	.	.	.	.
*	*	*	*	*rep	*	*rep	*	*	*	*	*	*	*	*
8F\	.	.	.	16c/LL	.	16e-/LL	.	.	.	.	.	.	.	.
!	!	!	!	!LO:SIC:v:s=16A	!	!	!	!	!	!	!	!	!	!
.	.	.	.	16A-/	.	16f/	.	.	.	.	.	.	.	.
8r	.	.	.	16c/	.	16e-/	.	.	.	.	.	.	.	.
!	!	!	!	!LO:SIC:v:s=16AJJ	!	!	!	!	!	!	!	!	!	!
.	.	.	.	16A-/JJ	.	16f/JJ	.	.	.	.	.	.	.	.
*	*	*	*	*Xrep	*	*Xrep	*	*	*	*	*	*	*	*
*	*	*	*	*rep	*	*rep	*	*	*	*	*	*	*	*
8F\	.	.	.	16c/LL	.	16e-/LL	.	.	.	.	.	.	.	.
!	!	!	!	!LO:SIC:v:s=16A	!	!	!	!	!	!	!	!	!	!
.	.	.	.	16A-/	.	16f/	.	.	.	.	.	.	.	.
8r	.	.	.	16c/	.	16e-/	.	.	.	.	.	.	.	.
!	!	!	!	!LO:SIC:v:s=16AJJ	!	!	!	!	!	!	!	!	!	!
.	.	.	.	16A-/JJ	.	16f/JJ	.	.	.	.	.	.	.	.
*	*	*	*	*Xrep	*	*Xrep	*	*	*	*	*	*	*	*
=41	=41	=41	=41	=41	=41	=41	=41	=41	=41	=41	=41	=41	=41	=41
8BB-/	.	.	.	4B-/	.	4d/	.	2.ryy	.	.	.	.	2.ryy	2.ryy
8r	.	.	.	.	.	.	.	.	.	.	.	.	.	.
4r	.	.	.	4r	.	4r	.	.	.	.	.	.	.	.
8r	.	.	.	8r	.	8r	.	.	.	.	.	.	.	.
8G\	.	.	.	8en/	.	8b-\	.	.	.	.	.	.	.	.
=42	=42	=42	=42	=42	=42	=42	=42	=42	=42	=42	=42	=42	=42	=42
!	!	!	!	!	!	!LO:MO:mod=*tremolo	!	!	!	!	!	!	!	!
*tremolo	*	*	*	*	*	*null	*	*	*	*	*	*	*	*
8F\L	.	.	.	8f/L	.	8b-\L	.	2.ryy	.	.	.	.	2.ryy	2.ryy
8F\	.	.	.	8d/	.	8b-\	.	.	.	.	.	.	.	.
8F\	.	.	.	8d/	.	8b-\	.	.	.	.	.	.	.	.
8F\	.	.	.	8d/	.	8b-\	.	.	.	.	.	.	.	.
8F\	.	.	.	8d/	.	8b-\	.	.	.	.	.	.	.	.
8F\J	.	.	.	8d/J	.	8b-\J	.	.	.	.	.	.	.	.
=43	=43	=43	=43	=43	=43	=43	=43	=43	=43	=43	=43	=43	=43	=43
*	*	*	*	*tremolo	*	*	*	*	*	*	*	*	*	*
8FF/L	.	.	.	8e-/L	.	8b-\L	.	2.ryy	2.r	.	2.r	.	2.ryy	2.ryy
8FF/	.	.	.	8e-/	.	8b-\J	.	.	.	.	.	.	.	.
!	!	!	!	!	!	!LO:MO:mod=*null:null	!	!	!	!	!	!	!	!
*	*	*	*	*	*	*tremolo	*	*	*	*	*	*	*	*
8FF/	.	.	.	8e-/	.	8an/L	.	.	.	.	.	.	.	.
8FF/	.	.	.	8e-/	.	8an/	.	.	.	.	.	.	.	.
8FF/	.	.	.	8e-/	.	8an/	.	.	.	.	.	.	.	.
8FF/J	.	.	.	8e-/J	.	8an/J	.	.	.	.	.	.	.	.
*Xtremolo	*	*	*	*Xtremolo	*	*Xtremolo	*	*	*	*	*	*	*	*
!	!	!	!	!	!	!	!	!	!	!	!LO:LB:g=original	!	!	!
=44	=44	=44	=44	=44	=44	=44	=44	=44	=44	=44	=44	=44	=44	=44
!!LO:TX:a:t= :mod=Tutti
!	!LO:MO:mod=!LO&colon;DY&colon;ed=brack	!LO:TX:a:t= :mod=arco	!LO:MO:mod=!LO&colon;DY&colon;ed=brack	!	!LO:MO:mod=!LO&colon;DY&colon;ed=brack	!	!	!	!	!	!	!	!	!
!LO:TX:a:t=Tutti:mod=	!LO:DY:t= :mod=%s	!LO:TX:a:t=Tutti:mod=	!LO:DY:t= :mod=%s	!	!LO:DY:t= :mod=%s	!	!LO:DY:a:t=fo&colon;:mod=%s	!	!	!LO:DY:a:t=fr:mod=%s	!	!LO:DY:a:t=fr:mod=%s	!	!
4BB-/	f	4B-/	f	4d/	f	16b-\LL	f	2.ryy	4B-/	f	4f\	f	2.ryy	2.ryy
.	.	.	.	.	.	16b-\	.	.	.	.	.	.	.	.
.	.	.	.	.	.	16dd\	.	.	.	.	.	.	.	.
.	.	.	.	.	.	16ff\JJ	.	.	.	.	.	.	.	.
8r	.	8r	.	8r	.	16bb-\LL	.	.	8r	.	8r	.	.	.
.	.	.	.	.	.	16b-\	.	.	.	.	.	.	.	.
8D\L	.	8B-/L	.	8f/L	.	16cc\	.	.	8B-/L	.	8f\L	.	.	.
.	.	.	.	.	.	16b-\JJ	.	.	.	.	.	.	.	.
!	!	!	!LO:DY:a:t=ffr&colon;:mod= 	!	!	!	!	!	!	!	!	!	!	!
8F\	.	8d/	ff	8a-X/	.	16a-X/LL	.	.	8B-/	.	8f\	.	.	.
.	.	.	.	.	.	16b-/	.	.	.	.	.	.	.	.
8D\J	.	8B-/J	.	8f/J	.	16f/	.	.	8B-/J	.	8f\J	.	.	.
.	.	.	.	.	.	16b-/JJ	.	.	.	.	.	.	.	.
=45	=45	=45	=45	=45	=45	=45	=45	=45	=45	=45	=45	=45	=45	=45
*tremolo	*	*tremolo	*	*tremolo	*	*	*	*	*	*	*	*	*	*
8E-\L	.	8e-\L	.	8g/L	.	8g/	.	2.ryy	4e-\	.	4g\	.	2.ryy	2.ryy
8E-\	.	8e-\	.	8g/	.	4gg\	.	.	.	.	.	.	.	.
8E-\	.	8e-\	.	8g/	.	.	.	.	4e-\	.	4g\	.	.	.
8E-\	.	8e-\J	.	8g/	.	16ff\LL	.	.	.	.	.	.	.	.
.	.	.	.	.	.	16ee-\JJ	.	.	.	.	.	.	.	.
*	*	*Xtremolo	*	*	*	*	*	*	*	*	*	*	*	*
8E-\	.	8g\L	.	8g/	.	16dd\LL	.	.	4e-\	.	4g\	.	.	.
.	.	.	.	.	.	16cc\	.	.	.	.	.	.	.	.
8E-\J	.	8g\J	.	8g/J	.	16ee-\	.	.	.	.	.	.	.	.
.	.	.	.	.	.	16cc\JJ	.	.	.	.	.	.	.	.
=46	=46	=46	=46	=46	=46	=46	=46	=46	=46	=46	=46	=46	=46	=46
8F\L	.	8f\L	.	8c/L	.	8an/	.	2.ryy	4f\	.	4f\	.	2.ryy	2.ryy
8F\	.	8an\	.	8c/	.	4ee-\	.	.	.	.	.	.	.	.
8F\	.	8a\	.	8c/	.	.	.	.	4f\	.	4f\	.	.	.
8F\J	.	8a\	.	8c/	.	16cc\LL	.	.	.	.	.	.	.	.
!	!	!	!	!	!	!LO:SIC:v:s=16a\JJJ	!	!	!	!	!	!	!	!
.	.	.	.	.	.	16an\JJ	.	.	.	.	.	.	.	.
*Xtremolo	*	*	*	*	*	*	*	*	*	*	*	*	*	*
8An\L	.	8f\	.	8c/	.	16f/LL	.	.	4f\	.	4f\	.	.	.
.	.	.	.	.	.	16e-/	.	.	.	.	.	.	.	.
8A\J	.	8f\J	.	8c/J	.	16d/	.	.	.	.	.	.	.	.
.	.	.	.	.	.	16e-/JJ	.	.	.	.	.	.	.	.
!	!	!	!	!	!	!LO:LB:g=original	!	!	!	!	!	!	!	!
=47	=47	=47	=47	=47	=47	=47	=47	=47	=47	=47	=47	=47	=47	=47
!LO:TX:t=P:problem=mixed beam:mod=	!	!	!	!	!	!	!	!	!	!	!	!	!	!
8B-\L	.	8b-\L	.	8d/L	.	16d/LL	.	2.ryy	4B-/	.	4f\	.	2.ryy	2.ryy
.	.	.	.	.	.	16f/	.	.	.	.	.	.	.	.
8BB-/J	.	8b-\J	.	8f/J	.	16b-/	.	.	.	.	.	.	.	.
.	.	.	.	.	.	16dd/JJ	.	.	.	.	.	.	.	.
!	!	!	!	!LO:MO:mod=*null:null	!	!	!	!	!	!	!	!	!	!
*tremolo	*	*tremolo	*	*2\right	*	*	*	*	*	*	*	*	*	*
8D\L	.	8d\L	.	8b-\L	.	8ff\L	.	.	8r	.	8r	.	.	.
8D\	.	8d\	.	8b-\	.	8ff\J	.	.	8B-/L	.	8f\L	.	.	.
8D\	.	8d\	.	8b-\	.	8.ffT\L	.	.	8B-/	.	8f\	.	.	.
8D\J	.	8d\J	.	8b-\J	.	.	.	.	8B-/J	.	8f\J	.	.	.
.	.	.	.	.	.	32ee-\LL	.	.	.	.	.	.	.	.
.	.	.	.	.	.	32ff\JJJ	.	.	.	.	.	.	.	.
!LO:LB:g=original	!	!	!	!	!	!	!	!	!	!	!	!	!	!
=48	=48	=48	=48	=48	=48	=48	=48	=48	=48	=48	=48	=48	=48	=48
!	!	!	!	!	!	!	!	!	!LO:MO:mod=*null:null	!	!LO:MO:mod=*null:null	!	!	!
*	*	*	*	*	*	*	*	*	*2\right	*	*2\right	*	*	*
8E-\L	.	8e-\L	.	8b-/L	.	8gg\L	.	2.ryy	2.e-\	.	2.g\	.	2.ryy	2.ryy
8E-\	.	8e-\	.	8g/J	.	16cc\L	.	.	.	.	.	.	.	.
.	.	.	.	.	.	16dd\JJ	.	.	.	.	.	.	.	.
8E-\	.	8e-\	.	8g/L	.	8cc\L	.	.	.	.	.	.	.	.
8E-\	.	8e-\	.	8g/	.	8cc\J	.	.	.	.	.	.	.	.
8E-\	.	8e-\	.	8g/	.	8.ccT\L	.	.	.	.	.	.	.	.
8E-\J	.	8e-\J	.	8g/J	.	.	.	.	.	.	.	.	.	.
.	.	.	.	.	.	32dd\LL	.	.	.	.	.	.	.	.
.	.	.	.	.	.	32ee-\JJJ	.	.	.	.	.	.	.	.
=49	=49	=49	=49	=49	=49	=49	=49	=49	=49	=49	=49	=49	=49	=49
*	*	*	*	*	*	*	*	*	*tremolo	*	*	*	*	*
8F\L	.	8d\L	.	8b-\L	.	16ff\LL	.	2.ryy	8f\L	.	2.f\	.	2.ryy	2.ryy
.	.	.	.	.	.	16dd\	.	.	.	.	.	.	.	.
8F\	.	8d\J	.	8b-\	.	16cc\	.	.	8f\	.	.	.	.	.
.	.	.	.	.	.	16b-\JJ	.	.	.	.	.	.	.	.
!	!	!	!	!	!	!LO:MO:mod=*null:null	!	!	!	!	!	!	!	!
*	*	*	*	*	*	*2\right	*	*	*	*	*	*	*	*
8F\	.	8e-\L	.	8b-\	.	2ccT\	.	.	8f\	.	.	.	.	.
8F\J	.	8e-\	.	8b-\J	.	.	.	.	8f\	.	.	.	.	.
*Xtremolo	*	*	*	*Xtremolo	*	*	*	*	*	*	*	*	*	*
8FF/L	.	8e-\	.	8an/L	.	.	.	.	8f\	.	.	.	.	.
8FF/J	.	8e-\J	.	8a/J	.	.	.	.	8f\J	.	.	.	.	.
*	*	*Xtremolo	*	*	*	*	*	*	*Xtremolo	*	*	*	*	*
=50	=50	=50	=50	=50	=50	=50	=50	=50	=50	=50	=50	=50	=50	=50
!	!	!	!LO:DY:a:t=pia&colon;:mod=%s	!	!	!	!	!	!	!	!	!	!	!
4BB-/	.	8d\L	p	8b-/L	.	4b-\	.	2.ryy	4B-/	.	4f\	.	2.ryy	2.ryy
.	.	8d\	.	8f/	.	.	.	.	.	.	.	.	.	.
!	!LO:DY:a:t=p&colon;:mod= 	!	!	!	!	!	!	!	!	!	!	!	!	!
4r	p	8B-\	.	8d/	.	4r	.	.	4r	.	4r	.	.	.
.	.	8d\	.	8f/	.	.	.	.	.	.	.	.	.	.
!	!LO:DY:t= :mod=%s	!	!	!	!	!	!	!	!	!LO:DY:rj:a:t=p&colon;:mod=%s	!	!LO:DY:t= :mod=%s	!	!
4F\	p	8c\	.	8e-/	.	16ee-\LL	.	.	4f\	p	4f\	p	.	.
.	.	.	.	.	.	16cc\	.	.	.	.	.	.	.	.
.	.	8e-\J	.	8f/J	.	16b-\	.	.	.	.	.	.	.	.
.	.	.	.	.	.	16an\JJ	.	.	.	.	.	.	.	.
!	!	!LO:LB:g=original	!	!	!	!	!	!	!	!	!	!	!	!
=51	=51	=51	=51	=51	=51	=51	=51	=51	=51	=51	=51	=51	=51	=51
4B-\	.	8B-/L	.	8d/L	.	4b-\	.	2.ryy	4B-/	.	4f\	.	2.ryy	2.ryy
.	.	8d/	.	8f/	.	.	.	.	.	.	.	.	.	.
4r	.	8B-/	.	8d/	.	4r	.	.	4r	.	4r	.	.	.
.	.	8d/	.	8f/	.	.	.	.	.	.	.	.	.	.
4F\	.	8c/	.	8e-/	.	16ee-\LL	.	.	4f\	.	4f\	.	.	.
.	.	.	.	.	.	16cc\	.	.	.	.	.	.	.	.
.	.	8e-/J	.	8f/J	.	16b-\	.	.	.	.	.	.	.	.
.	.	.	.	.	.	16an\JJ	.	.	.	.	.	.	.	.
=52	=52	=52	=52	=52	=52	=52	=52	=52	=52	=52	=52	=52	=52	=52
!	!	!	!	!LO:TX:a:t=Solo:mod=	!	!	!	!	!	!	!	!	!	!
4B-\	.	4d\	.	4d/	.	4b-\	.	2.ryy	4B-/	.	4f\	.	2.ryy	2.ryy
4BB-/	.	4B-/	.	4d/	.	4B-/	.	.	4B-/	.	4f\	.	.	.
4r	.	4r	.	4r	.	4r	.	.	4r	.	4r	.	.	.
=53	=53	=53	=53	=53	=53	=53	=53	=53	=53	=53	=53	=53	=53	=53
!!LO:TX:a:t= :mod=Solo
!	!	!	!	!	!	!	!	!	!	!	!LO:TX:a:t=28:mod=	!	!	!
!LO:TX:a:t=Solo:mod=	!	!LO:TX:a:t=Solo:mod=	!	!	!	!LO:TX:a:t=Solo:mod=	!	!	!LO:TX:a:t=28:mod=	!	!LO:TX:b:t=Paus:mod=	!	!	!
4BB-/	.	4B-/	.	4f/	.	4d/	.	2.ryy	0.r	.	2.r	.	2.ryy	2.ryy
!	!	!	!LO:DY:a:t=pp&colon;:mod= 	!	!	!	!	!	!	!	!	!	!	!
4r	.	4r	pp	4r	.	4r	.	.	.	.	.	.	.	.
!	!	!	!	!	!LO:DY:a:t=pi&colon;:mod= 	!	!LO:DY:a:t=pp&colon;:mod= 	!	!	!	!	!	!	!
4r	.	4r	.	4r	pp	4r	pp	.	.	.	.	.	.	.
=54	=54	=54	=54	=54	=54	=54	=54	=54	=54	=54	=54	=54	=54	=54
!	!	!	!	!	!	!	!LO:DY:t= :mod=%s	!	!	!	!	!	!	!
8r	.	8r	.	8r	.	4g/	pp	2.ryy	.	.	2.r	.	2.ryy	2.ryy
!	!LO:MO:mod=!LO&colon;DY&colon;ed=brack	!	!	!	!	!	!	!	!	!	!	!	!	!
!	!LO:DY:t= :mod=%s	!	!LO:DY:t= :mod=%s	!	!LO:DY:t= :mod=%s	!	!	!	!	!	!	!	!	!
8B-\	pp	8B-/	pp	8B-/	pp	.	.	.	.	.	.	.	.	.
*tremolo	*	*	*	*	*	*	*	*	*	*	*	*	*	*
8B-\L	.	8B-/L	.	8B-/L	.	4f/	.	.	.	.	.	.	.	.
8B-\	.	8B-/	.	8B-/	.	.	.	.	.	.	.	.	.	.
8B-\	.	8F/	.	8An/	.	4e-/	.	.	.	.	.	.	.	.
8B-\J	.	8F/J	.	8A/J	.	.	.	.	.	.	.	.	.	.
*Xtremolo	*	*	*	*	*	*	*	*	*	*	*	*	*	*
=55	=55	=55	=55	=55	=55	=55	=55	=55	=55	=55	=55	=55	=55	=55
4B-\	.	4B-/	.	8B-/	.	4d/	.	2.ryy	.	.	2.r	.	2.ryy	2.ryy
.	.	.	.	8r	.	.	.	.	.	.	.	.	.	.
4r	.	4r	.	4r	.	4r	.	.	.	.	.	.	.	.
4r	.	4r	.	4r	.	4r	.	.	.	.	.	.	.	.
=56	=56	=56	=56	=56	=56	=56	=56	=56	=56	=56	=56	=56	=56	=56
8r	.	8r	.	4g/	.	4e-/	.	2.ryy	.	.	2.r	.	2.ryy	2.ryy
8B-\	.	8B-/L	.	.	.	.	.	.	.	.	.	.	.	.
*tremolo	*	*	*	*	*	*	*	*	*	*	*	*	*	*
8B-\L	.	8B-/	.	4f/	.	4d/	.	.	.	.	.	.	.	.
8B-\	.	8B-/	.	.	.	.	.	.	.	.	.	.	.	.
8B-\	.	8c/	.	4e-/	.	4an/	.	.	.	.	.	.	.	.
8B-\J	.	8c/J	.	.	.	.	.	.	.	.	.	.	.	.
*Xtremolo	*	*	*	*	*	*	*	*	*	*	*	*	*	*
=57	=57	=57	=57	=57	=57	=57	=57	=57	=57	=57	=57	=57	=57	=57
!	!	!	!	!LO:MO:mod=4f	!	!LO:MO:mod=4f	!	!	!	!	!	!	!	!
4B-\	.	4B-/	.	8f/	.	8b-/	.	2.ryy	0.r	.	2.r	.	2.ryy	2.ryy
!	!	!	!	!LO:MO:mod=.	!	!LO:MO:mod=.	!	!	!	!	!	!	!	!
.	.	.	.	8r	.	8r	.	.	.	.	.	.	.	.
4r	.	4r	.	4r	.	4r	.	.	.	.	.	.	.	.
8r	.	8r	.	4r	.	8r	.	.	.	.	.	.	.	.
8B-\	.	8B-/	.	.	.	8a-/	.	.	.	.	.	.	.	.
!	!	!	!	!LO:LB:g=original	!	!LO:LB:g=original	!	!	!	!	!	!	!	!
=58	=58	=58	=58	=58	=58	=58	=58	=58	=58	=58	=58	=58	=58	=58
!LO:MO:mod=!null:null	!	!	!	!	!	!	!	!	!	!	!	!	!	!
!LO:N:vis=4	!	!	!	!	!	!	!	!	!	!	!	!	!	!
!LO:MO:mod=8B	!	!	!	!	!	!	!	!	!	!	!	!	!	!
8Bn\	.	8Bn/	.	8d/	.	8g/	.	2.ryy	.	.	2.r	.	2.ryy	2.ryy
!LO:MO:mod=8r	!	!	!	!	!	!	!	!	!	!	!	!	!	!
8ryy	.	8r	.	8r	.	8r	.	.	.	.	.	.	.	.
8B\	.	8B/	.	8d/	.	8g/	.	.	.	.	.	.	.	.
8r	.	8r	.	8r	.	8r	.	.	.	.	.	.	.	.
8c\	.	8c/	.	8e-/	.	8g/	.	.	.	.	.	.	.	.
8r	.	8r	.	8r	.	8r	.	.	.	.	.	.	.	.
=59	=59	=59	=59	=59	=59	=59	=59	=59	=59	=59	=59	=59	=59	=59
8d\	.	8d\L	.	8f/	.	8g/	.	2.ryy	.	.	2.r	.	2.ryy	2.ryy
8r	.	8Bn\	.	4g/	.	4gg\	.	.	.	.	.	.	.	.
!LO:TX:t=P:problem=mixed beam:mod=	!	!	!	!	!	!	!	!	!	!	!	!	!	!
8Bn\L	.	8d\	.	.	.	.	.	.	.	.	.	.	.	.
8G\	.	8B\	.	4g/	.	8dd\	.	.	.	.	.	.	.	.
.	.	.	.	.	.	8qff/	.	.	.	.	.	.	.	.
8c\	.	8e-\	.	.	.	8ee-\L	.	.	.	.	.	.	.	.
8C/J	.	8c\J	.	8g/	.	16dd\L	.	.	.	.	.	.	.	.
.	.	.	.	.	.	16cc\JJ	.	.	.	.	.	.	.	.
!LO:LB:g=original	!	!	!	!	!	!	!	!	!	!	!	!	!	!
=60	=60	=60	=60	=60	=60	=60	=60	=60	=60	=60	=60	=60	=60	=60
8G\	.	8G/	.	8g/L	.	8bn/L	.	2.ryy	.	.	2.r	.	2.ryy	2.ryy
8r	.	8r	.	8Bn/J	.	8g/J	.	.	.	.	.	.	.	.
8Bn\	.	8G/	.	8r	.	8r	.	.	.	.	.	.	.	.
8r	.	8r	.	8d/	.	8g/	.	.	.	.	.	.	.	.
8c\	.	8G/	.	8r	.	8r	.	.	.	.	.	.	.	.
8r	.	8r	.	8e-/	.	8g/	.	.	.	.	.	.	.	.
=61	=61	=61	=61	=61	=61	=61	=61	=61	=61	=61	=61	=61	=61	=61
8F\L	.	8F/L	.	8c/L	.	8a-/L	.	2.ryy	0.r	.	2.r	.	2.ryy	2.ryy
8G\J	.	8G/J	.	8c/	.	8g/J	.	.	.	.	.	.	.	.
*tremolo	*	*	*	*	*	*tremolo	*	*	*	*	*	*	*	*
8A-\L	.	8A-/L	.	8e-/	.	8f#X/L	.	.	.	.	.	.	.	.
8A-\	.	8A-/	.	8e-/	.	8f#X/	.	.	.	.	.	.	.	.
8A-\	.	8c/	.	8c/	.	8f#X/	.	.	.	.	.	.	.	.
8A-\J	.	8c/J	.	8c/J	.	8f#X/J	.	.	.	.	.	.	.	.
*Xtremolo	*	*	*	*	*	*Xtremolo	*	*	*	*	*	*	*	*
!	!	!LO:LB:g=original	!	!	!	!	!	!	!	!	!	!	!	!
=62	=62	=62	=62	=62	=62	=62	=62	=62	=62	=62	=62	=62	=62	=62
4G\	.	4d\	.	4Bn/	.	4g/	.	2.ryy	.	.	2.r	.	2.ryy	2.ryy
!	!LO:DY:a:t=fr&colon;:mod= 	!	!LO:DY:a:t=fr&colon;:mod= 	!	!	!	!	!	!	!	!	!	!	!
16r	f	16r	f	4r	.	4r	.	.	.	.	.	.	.	.
!	!LO:DY:t= :mod=%s	!	!LO:DY:t= :mod=%s	!	!	!	!	!	!	!	!	!	!	!
16GG/LL	f	16G/LL	f	.	.	.	.	.	.	.	.	.	.	.
16BBn/	.	16Bn/	.	.	.	.	.	.	.	.	.	.	.	.
16D/JJ	.	16d/JJ	.	.	.	.	.	.	.	.	.	.	.	.
16G\LL	.	16g\LL	.	4r	.	4r	.	.	.	.	.	.	.	.
16F\	.	16f\	.	.	.	.	.	.	.	.	.	.	.	.
16E-\	.	16e-\	.	.	.	.	.	.	.	.	.	.	.	.
16D\JJ	.	16d\JJ	.	.	.	.	.	.	.	.	.	.	.	.
=63	=63	=63	=63	=63	=63	=63	=63	=63	=63	=63	=63	=63	=63	=63
!	!LO:DY:rj:a:t=pp&colon;:mod= 	!	!	!	!	!	!	!	!	!	!	!	!	!
8C/	pp	8c\	.	8G/L	.	8e-/L	.	2.ryy	.	.	2.r	.	2.ryy	2.ryy
8r	.	8r	.	8e-/	.	8g/	.	.	.	.	.	.	.	.
!	!LO:DY:t= :mod=%s	!	!LO:DY:a:t=piano:mod=pp	!	!	!	!	!	!	!	!	!	!	!
8c\	pp	8G/	p	8G/	.	8e-/	.	.	.	.	.	.	.	.
8r	.	8r	.	8e-/	.	8g/	.	.	.	.	.	.	.	.
8c\	.	8G/	.	8G/	.	8e-/	.	.	.	.	.	.	.	.
8r	.	8r	.	8e-/J	.	8g/J	.	.	.	.	.	.	.	.
=64	=64	=64	=64	=64	=64	=64	=64	=64	=64	=64	=64	=64	=64	=64
8d\	.	8G/	.	8G/L	.	8f/L	.	2.ryy	.	.	2.r	.	2.ryy	2.ryy
8r	.	8r	.	8d/	.	8g/	.	.	.	.	.	.	.	.
8G\	.	8G/	.	8Bn/	.	8f/	.	.	.	.	.	.	.	.
8r	.	8r	.	8d/	.	8g/	.	.	.	.	.	.	.	.
8G\	.	8G/	.	8B/	.	8f/	.	.	.	.	.	.	.	.
8r	.	8r	.	8d/J	.	8g/J	.	.	.	.	.	.	.	.
=65	=65	=65	=65	=65	=65	=65	=65	=65	=65	=65	=65	=65	=65	=65
8C/	.	8G/	.	8G/L	.	8e-/L	.	2.ryy	0.r	.	2.r	.	2.ryy	2.ryy
8r	.	8r	.	8e-/	.	8g/	.	.	.	.	.	.	.	.
8c\	.	8G/	.	8G/	.	8e-/	.	.	.	.	.	.	.	.
8r	.	8r	.	8e-/	.	8g/	.	.	.	.	.	.	.	.
8c\	.	8G/	.	8G/	.	8e-/	.	.	.	.	.	.	.	.
8r	.	8r	.	8e-/J	.	8g/J	.	.	.	.	.	.	.	.
=66	=66	=66	=66	=66	=66	=66	=66	=66	=66	=66	=66	=66	=66	=66
8d\	.	8G/	.	8G/L	.	8f/L	.	2.ryy	.	.	2.r	.	2.ryy	2.ryy
8r	.	8r	.	8d/	.	8g/	.	.	.	.	.	.	.	.
8G\	.	8G/	.	8Bn/	.	8f/	.	.	.	.	.	.	.	.
8r	.	8r	.	8d/	.	8g/	.	.	.	.	.	.	.	.
8G\	.	8G/	.	8B/	.	8f/	.	.	.	.	.	.	.	.
8r	.	8r	.	8d/J	.	8g/J	.	.	.	.	.	.	.	.
=67	=67	=67	=67	=67	=67	=67	=67	=67	=67	=67	=67	=67	=67	=67
8c\	.	8G/	.	8G/L	.	8e-/L	.	2.ryy	.	.	2.r	.	2.ryy	2.ryy
8r	.	8r	.	8e-/	.	8g/J	.	.	.	.	.	.	.	.
*	*	*	*	*	*	*tremolo	*	*	*	*	*	*	*	*
4r	.	4r	.	8e-/	.	8cc\L	.	.	.	.	.	.	.	.
.	.	.	.	8e-/	.	8cc\	.	.	.	.	.	.	.	.
4r	.	4r	.	8f/	.	8cc\	.	.	.	.	.	.	.	.
.	.	.	.	8f/J	.	8cc\J	.	.	.	.	.	.	.	.
*	*	*	*	*	*	*Xtremolo	*	*	*	*	*	*	*	*
=68	=68	=68	=68	=68	=68	=68	=68	=68	=68	=68	=68	=68	=68	=68
4r	.	4r	.	8e-/L	.	8cc\L	.	2.ryy	.	.	2.r	.	2.ryy	2.ryy
.	.	.	.	8e-/	.	8cc\	.	.	.	.	.	.	.	.
4r	.	4r	.	8g/	.	8cc\	.	.	.	.	.	.	.	.
.	.	.	.	8g/	.	8cc\J	.	.	.	.	.	.	.	.
4G\	.	4Bn/	.	8f/	.	8bn\L	.	.	.	.	.	.	.	.
.	.	.	.	8f/J	.	8b\J	.	.	.	.	.	.	.	.
!	!	!	!	!	!	!LO:LB:g=original	!	!	!	!	!	!	!	!
=69	=69	=69	=69	=69	=69	=69	=69	=69	=69	=69	=69	=69	=69	=69
4c\	.	4c\	.	8e-/L	.	8cc/L	.	2.ryy	0.r	.	2.r	.	2.ryy	2.ryy
.	.	.	.	8e-/J	.	8g/J	.	.	.	.	.	.	.	.
4C/	.	4c\	.	4c/	.	4e-/	.	.	.	.	.	.	.	.
4r	.	4r	.	4r	.	4r	.	.	.	.	.	.	.	.
!	!	!	!	!LO:LB:g=original	!	!	!	!	!	!	!	!	!	!
=70	=70	=70	=70	=70	=70	=70	=70	=70	=70	=70	=70	=70	=70	=70
!	!	!LO:TX:a:t=11.:mod=	!	!	!	!	!	!	!	!	!	!	!	!
4F\	.	0.r	.	4c/	.	8e-/	.	2.ryy	.	.	2.r	.	2.ryy	2.ryy
.	.	.	.	.	.	8r	.	.	.	.	.	.	.	.
8r	.	.	.	8r	.	8r	.	.	.	.	.	.	.	.
8F\L	.	.	.	8An/L	.	8f/L	.	.	.	.	.	.	.	.
8G\	.	.	.	8B-/	.	8f/	.	.	.	.	.	.	.	.
8An\J	.	.	.	8c/J	.	8f/J	.	.	.	.	.	.	.	.
!LO:LB:g=original	!	!	!	!	!	!	!	!	!	!	!	!	!	!
=71	=71	=71	=71	=71	=71	=71	=71	=71	=71	=71	=71	=71	=71	=71
8B-\	.	.	.	8d/	.	8f/	.	2.ryy	.	.	2.r	.	2.ryy	2.ryy
8r	.	.	.	8r	.	8r	.	.	.	.	.	.	.	.
8B-\	.	.	.	8d/	.	8f/	.	.	.	.	.	.	.	.
8r	.	.	.	8r	.	8r	.	.	.	.	.	.	.	.
8B-\	.	.	.	8d/	.	8f/	.	.	.	.	.	.	.	.
8r	.	.	.	8r	.	8r	.	.	.	.	.	.	.	.
=72	=72	=72	=72	=72	=72	=72	=72	=72	=72	=72	=72	=72	=72	=72
8E-\L	.	.	.	8B-/L	.	8g/L	.	2.ryy	.	.	2.r	.	2.ryy	2.ryy
8E-\	.	.	.	8B-/	.	8g/	.	.	.	.	.	.	.	.
8G\	.	.	.	8e-/	.	8b-/	.	.	.	.	.	.	.	.
8G\	.	.	.	8e-/	.	8b-/	.	.	.	.	.	.	.	.
8A-\	.	.	.	8e-/	.	8cc/	.	.	.	.	.	.	.	.
8F\J	.	.	.	8c/J	.	8cc/J	.	.	.	.	.	.	.	.
=73	=73	=73	=73	=73	=73	=73	=73	=73	=73	=73	=73	=73	=73	=73
4B-\	.	.	.	4B-/	.	4g/	.	2.ryy	0.r	.	2.r	.	2.ryy	2.ryy
8r	.	.	.	4B-/	.	4f/	.	.	.	.	.	.	.	.
8B-\L	.	.	.	.	.	.	.	.	.	.	.	.	.	.
8F\	.	.	.	4r	.	4r	.	.	.	.	.	.	.	.
8D\J	.	.	.	.	.	.	.	.	.	.	.	.	.	.
=74	=74	=74	=74	=74	=74	=74	=74	=74	=74	=74	=74	=74	=74	=74
4BB-/	.	0.r	.	8r	.	8r	.	2.ryy	.	.	2.r	.	2.ryy	2.ryy
.	.	.	.	8B-/L	.	8bb-\L	.	.	.	.	.	.	.	.
!	!	!	!	!	!	!LO:SIC:v:s=8dd	!	!	!	!	!	!	!	!
4r	.	.	.	8B-/	.	(8dd\	.	.	.	.	.	.	.	.
!	!	!	!	!	!	!LO:SIC:v:s=8ee-	!	!	!	!	!	!	!	!
.	.	.	.	8c/	.	8ee-\)	.	.	.	.	.	.	.	.
4r	.	.	.	8d/	.	8ff\	.	.	.	.	.	.	.	.
.	.	.	.	8e-/J	.	8gg\J	.	.	.	.	.	.	.	.
=75	=75	=75	=75	=75	=75	=75	=75	=75	=75	=75	=75	=75	=75	=75
!LO:MO:mod=4BB-	!	!	!	!	!	!	!	!	!	!	!	!	!	!
8BB-/	.	.	.	4f/	.	4aa-\	.	2.ryy	.	.	2.r	.	2.ryy	2.ryy
!LO:MO:mod=.	!	!	!	!	!	!	!	!	!	!	!	!	!	!
8BB-/	.	.	.	.	.	.	.	.	.	.	.	.	.	.
8r	.	.	.	8r	.	8r	.	.	.	.	.	.	.	.
8BB-/L	.	.	.	8B-/L	.	8d/L	.	.	.	.	.	.	.	.
8D/	.	.	.	8d/	.	8f/	.	.	.	.	.	.	.	.
8BB-/J	.	.	.	8f/J	.	8a-/J	.	.	.	.	.	.	.	.
=76	=76	=76	=76	=76	=76	=76	=76	=76	=76	=76	=76	=76	=76	=76
8E-\	.	.	.	8g/L	.	8g/	.	2.ryy	.	.	2.r	.	2.ryy	2.ryy
8r	.	.	.	8e-/	.	4b-/	.	.	.	.	.	.	.	.
4r	.	.	.	8d/	.	.	.	.	.	.	.	.	.	.
.	.	.	.	8f/	.	4b-/	.	.	.	.	.	.	.	.
8r	.	.	.	8e-/	.	.	.	.	.	.	.	.	.	.
8G\	.	.	.	8B-/J	.	8b-/	.	.	.	.	.	.	.	.
=77	=77	=77	=77	=77	=77	=77	=77	=77	=77	=77	=77	=77	=77	=77
4B-\	.	.	.	4B-/	.	4b-\	.	2.ryy	0.r	.	2.r	.	2.ryy	2.ryy
4r	.	.	.	8B-/L	.	8dd\L	.	.	.	.	.	.	.	.
.	.	.	.	8c/	.	8ee-\J	.	.	.	.	.	.	.	.
4r	.	.	.	8d/	.	8ff\L	.	.	.	.	.	.	.	.
.	.	.	.	8e-/J	.	8gg\J	.	.	.	.	.	.	.	.
=78	=78	=78	=78	=78	=78	=78	=78	=78	=78	=78	=78	=78	=78	=78
4BB-/	.	1.r	.	4f/	.	4aa-\	.	2.ryy	.	.	2.r	.	2.ryy	2.ryy
8r	.	.	.	8r	.	8r	.	.	.	.	.	.	.	.
8BB-/L	.	.	.	8B-/L	.	8d/L	.	.	.	.	.	.	.	.
8D/	.	.	.	8d/	.	8f/	.	.	.	.	.	.	.	.
8BB-/J	.	.	.	8f/J	.	8a-/J	.	.	.	.	.	.	.	.
!	!	!	!	!	!	!LO:LB:g=original	!	!	!	!	!	!	!	!
=79	=79	=79	=79	=79	=79	=79	=79	=79	=79	=79	=79	=79	=79	=79
8E-\L	.	.	.	8B-/L	.	8g/L	.	2.ryy	.	.	2.r	.	2.ryy	2.ryy
8E-\	.	.	.	8B-/	.	8g/	.	.	.	.	.	.	.	.
8G\	.	.	.	8e-/	.	8b-/	.	.	.	.	.	.	.	.
8G\	.	.	.	8e-/	.	8b-/	.	.	.	.	.	.	.	.
8A-\	.	.	.	8e-/	.	8cc/	.	.	.	.	.	.	.	.
8A-\J	.	.	.	8f/J	.	8cc/J	.	.	.	.	.	.	.	.
=80	=80	=80	=80	=80	=80	=80	=80	=80	=80	=80	=80	=80	=80	=80
*tremolo	*	*	*	*	*	*	*	*	*	*	*	*	*	*
8B-\L	.	2.r	.	8e-/L	.	8b-/L	.	2.ryy	.	.	2.r	.	2.ryy	2.ryy
8B-\	.	.	.	8e-/	.	8g/J	.	.	.	.	.	.	.	.
8B-\	.	.	.	8B-/	.	8g/L	.	.	.	.	.	.	.	.
8B-\J	.	.	.	8B-/	.	8g/	.	.	.	.	.	.	.	.
*Xtremolo	*	*	*	*	*	*	*	*	*	*	*	*	*	*
8BB-/L	.	.	.	8d/	.	8a-/	.	.	.	.	.	.	.	.
8BB-/J	.	.	.	8d/J	.	8a-/J	.	.	.	.	.	.	.	.
!LO:PB:g=original	!	!LO:LB:g=original	!	!LO:LB:g=original	!	!	!	!	!	!	!	!	!	!
=81	=81	=81	=81	=81	=81	=81	=81	=81	=81	=81	=81	=81	=81	=81
!	!LO:DY:t= :mod=%s	!	!LO:DY:a	!	!LO:DY:t= :mod=%s	!	!LO:DY:a:t=fr&colon;:mod=%s	!	!	!LO:DY:a	!	!LO:DY:a:t=fr:mod=%s	!	!
4E-\	f	4e-\	f	4e-/	f	8ee-\	f	2.ryy	4E-/	f	4e-\	f	2.ryy	2.ryy
.	.	.	.	.	.	4e-/	.	.	.	.	.	.	.	.
!	!LO:DY:a:t=f&colon:mod= 	!	!	!	!	!	!	!	!	!	!	!	!	!
8r	f	8r	.	8r	.	.	.	.	8r	.	8r	.	.	.
!	!	!LO:TX:t=P:problem=mixed beam:mod=	!	!	!LO:DY:a:t=fr:mod= 	!	!	!	!	!	!	!	!	!
8E-\L	.	8e-\L	.	8B-/L	f	4e-/	.	.	8E-/L	.	8e-\L	.	.	.
8G\	.	8B-/	.	8d-X/	.	.	.	.	8E-/	.	8e-\	.	.	.
8E-\J	.	8G/J	.	8d-/J	.	[8e-/	.	.	8E-/J	.	8e-\J	.	.	.
!	!	!	!	!	!	!	!	!	!LO:LB:g=original	!	!	!	!	!
=82	=82	=82	=82	=82	=82	=82	=82	=82	=82	=82	=82	=82	=82	=82
8A-\L	.	8c/L	.	(16Bn/LL	.	8e-/]	.	2.ryy	2.E-/	.	2.e-\	.	2.ryy	2.ryy
.	.	.	.	16c/)	.	.	.	.	.	.	.	.	.	.
8E-\	.	8A-/	.	16c'/	.	4e-/	.	.	.	.	.	.	.	.
.	.	.	.	16c'/JJ	.	.	.	.	.	.	.	.	.	.
8G\	.	8B-/	.	(16e-/LL	.	.	.	.	.	.	.	.	.	.
.	.	.	.	16d-X/)	.	.	.	.	.	.	.	.	.	.
8E-\	.	8G/	.	16d-'/	.	4e-/	.	.	.	.	.	.	.	.
.	.	.	.	16d-'/JJ	.	.	.	.	.	.	.	.	.	.
8A-\	.	8c/	.	(16Bn/LL	.	.	.	.	.	.	.	.	.	.
.	.	.	.	16c/)	.	.	.	.	.	.	.	.	.	.
8E-\J	.	8A-/J	.	16c'/	.	8e-/	.	.	.	.	.	.	.	.
.	.	.	.	16c'/JJ	.	.	.	.	.	.	.	.	.	.
=83	=83	=83	=83	=83	=83	=83	=83	=83	=83	=83	=83	=83	=83	=83
8G\L	.	8B-/L	.	(16e-/LL	.	8e-/	.	2.ryy	4e-\	.	4e-\	.	2.ryy	2.ryy
.	.	.	.	16d-X/)	.	.	.	.	.	.	.	.	.	.
8E-\	.	8G/	.	16d-'/	.	4e-/	.	.	.	.	.	.	.	.
.	.	.	.	16d-'/JJ	.	.	.	.	.	.	.	.	.	.
8A-\	.	8c/	.	8c/	.	.	.	.	8e-\L	.	8e-\L	.	.	.
8G\	.	8B-/	.	4c/	.	8en/L	.	.	8g\	.	8g\	.	.	.
8A-\	.	8c/	.	.	.	8f/	.	.	8f\	.	8f\	.	.	.
8En\J	.	8c/J	.	8c/	.	8g/J	.	.	8g\J	.	8g\J	.	.	.
=84	=84	=84	=84	=84	=84	=84	=84	=84	=84	=84	=84	=84	=84	=84
8F\L	.	8c\L	.	8c/L	.	(16g\LL	.	2.ryy	4f\	.	4a-\	.	2.ryy	2.ryy
.	.	.	.	.	.	16a-\)	.	.	.	.	.	.	.	.
8D\	.	8B-\	.	8f/	.	16ff'\	.	.	.	.	.	.	.	.
.	.	.	.	.	.	16a-'\JJ	.	.	.	.	.	.	.	.
8E-\	.	8B-\	.	8g/	.	(16f#X\LL	.	.	4e-\	.	4g\	.	.	.
.	.	.	.	.	.	16g\)	.	.	.	.	.	.	.	.
8G\	.	8B-\	.	8e-/	.	16ee-'\	.	.	.	.	.	.	.	.
.	.	.	.	.	.	16g'\JJ	.	.	.	.	.	.	.	.
8A-\	.	8c\	.	8e-/	.	(16en\LL	.	.	8e-\L	.	8f\L	.	.	.
!	!	!	!	!	!	!LO:SIC:s=16f)	!	!	!	!	!	!	!	!
.	.	.	.	.	.	16f#\)	.	.	.	.	.	.	.	.
8An\J	.	8c\J	.	8f/J	.	16ee-'\	.	.	8e-\J	.	8f\J	.	.	.
.	.	.	.	.	.	16ee-'\JJ	.	.	.	.	.	.	.	.
!	!	!	!	!	!	!	!	!	!	!	!LO:LB:g=original	!	!	!
=85	=85	=85	=85	=85	=85	=85	=85	=85	=85	=85	=85	=85	=85	=85
!LO:MO:mod=!null:null	!	!	!	!	!	!	!	!	!	!	!	!	!	!
!LO:N:vis=2	!	!	!	!	!	!LO:SIC:v:s=4ee-	!	!	!	!	!	!	!	!
4B-\	.	4B-/	.	4g/	.	4ee-;\	.	2.ryy	4e-\	.	4g\	.	2.ryy	2.ryy
!	!	!	!	!	!	!LO:SIC:v:s=4r;	!	!	!	!	!	!	!	!
4r;	.	4r;	.	4r;	.	4r	.	.	4r;	.	4r;	.	.	.
!	!	!	!	!	!	!LO:SIC:v:s=4d	!	!	!	!	!	!	!	!
!	!	!	!	!	!	!LO:TX:t=P:problem=skreślony takt:mod=	!	!	!	!	!	!	!	!
4BB-/	.	4r	.	4r	.	4d;/	.	.	4r	.	4r	.	.	.
!	!	!	!	!	!	!LO:LB:g=original	!	!	!	!	!	!	!	!
=86	=86	=86	=86	=86	=86	=86	=86	=86	=86	=86	=86	=86	=86	=86
!	!LO:DY:a:t=pp&colon;:mod=%s	!LO:TX:t=P:problem=mixed beam:mod=	!LO:DY:rj:a:t=pp&colon;:mod=%s	!	!LO:DY:a:t=pp&colon;:mod=%s	!	!LO:DY:rj:a:t=pi&colon;:mod=%s	!	!	!LO:DY:a:t=p&colon;:mod=pp	!	!LO:DY:a	!	!
4E-\	pp	8e-\L	pp	8e-/L	pp	4e-/	pp	2.ryy	4G/	p	4e-\	pp	2.ryy	2.ryy
.	.	8G/	.	8B-/	.	.	.	.	.	.	.	.	.	.
4r	.	8E-/	.	8G/	.	4r	.	.	4r	.	4r	.	.	.
.	.	8G/	.	8B-/	.	.	.	.	.	.	.	.	.	.
4BB-/	.	8F/	.	8A-/	.	16a-/LL	.	.	4B-/	.	4f\	.	.	.
.	.	.	.	.	.	16f/	.	.	.	.	.	.	.	.
.	.	8B-/J	.	8B-/J	.	16e-/	.	.	.	.	.	.	.	.
.	.	.	.	.	.	16d/JJ	.	.	.	.	.	.	.	.
=87	=87	=87	=87	=87	=87	=87	=87	=87	=87	=87	=87	=87	=87	=87
4E-\	.	8E-/L	.	8G/L	.	4e-/	.	2.ryy	4G/	.	4e-\	.	2.ryy	2.ryy
.	.	8G/	.	8B-/	.	.	.	.	.	.	.	.	.	.
4r	.	8E-/	.	8G/	.	4r	.	.	4r	.	4r	.	.	.
.	.	8G/	.	8B-/	.	.	.	.	.	.	.	.	.	.
4BB-/	.	8F/	.	8A-/	.	16a-/LL	.	.	4B-/	.	4f\	.	.	.
.	.	.	.	.	.	16f/	.	.	.	.	.	.	.	.
.	.	8B-/J	.	8B-/J	.	16e-/	.	.	.	.	.	.	.	.
.	.	.	.	.	.	16d/JJ	.	.	.	.	.	.	.	.
=88	=88	=88	=88	=88	=88	=88	=88	=88	=88	=88	=88	=88	=88	=88
4E-\	.	4E-/	.	4G/	.	4e-/	.	2.ryy	4G/	.	4e-\	.	2.ryy	2.ryy
4EE-/	.	4E-/	.	4G/	.	4e-/	.	.	4G/	.	4e-\	.	.	.
4r	.	4r	.	4r	.	4r	.	.	4r	.	4r	.	.	.
!	!	!	!	!	!	!LO:TX:a:i:t=Vertatur Rondo:mod=	!	!	!	!	!LO:TX:b:i:t=Rondo Vertatur.:mod=	!	!	!LO:TX:a:i:t=Sequitur Rondo:mod=
==	==	==	==	==	==	==	==	==	==	==	==	==	==	==
*-	*-	*-	*-	*-	*-	*-	*-	*-	*-	*-	*-	*-	*-	*-
!!!system-decoration: [(g1)]<s5>[(g2)][(g3)]
!!!filter-modern: shed -X dynam -e "s/:a/:A/LX" | shed -e "s/:rj/:RJ/L" | sic -sq | modori -m | tie -s | autostem -r | shed -e "s/^(X?)rep$/$1REP/I"
!!!ENC: Kamil Watkowski
!!!END: 2020-09-24
!!!ENC: Leszek Kubiak
!!!END: 2022-02-02
!!!ENC-modern: Andrzej Kubiczek
!!!END-modern: 2022-06-10
!!!YEC: Copyright 2022 Narodowy Instytut Fryderyka Chopina (https://polishscores.org)
!!!YEM: License CC-BY-4.0 (https://creativecommons.org/licenses/by/4.0)
